X: 2356
T: Baiji March, The
R: mazurka
M: 3/4
K: Dmajor
|:DE|F2 F>E DF|A2 AF DF|G2 GB AG|FG EF DE|
F3 E D/E/F|A2 AF D<E|F2 FG EF|1 D4:|2 D3||
|:A dc|B2 BA FG|A2 AF dc|B2 B>A F<A|E3 A dc|
B>c BA E/F/G|A>B AF DE|F3 G EF|1 D3:|2 D4||

